proprietary/assets/icons/infrastructuur-en-transport/ruimtelijke-ordening.svg

<svg height="64" viewBox="0 0 64 64" width="64" xmlns="http://www.w3.org/2000/svg"><path d="m0 0h64v64h-64z" fill="none"/><circle cx="11" cy="29" r="5"/><path d="m27.5029 32.7793 10.5939 17.0408 11.3712-9.6954-17.8232-12.1545c-1.2902 1.6643-2.6696 3.2859-4.1419 4.8091z"/><path d="m16.8107 40.6765 7.3325 17.9412 8.1837-4.064-10.4636-16.831c-1.6811 1.214-3.3711 2.1931-5.0526 2.9538z"/><path d="m37.4329 19.243c-1.2988 2.2867-2.7921 4.6509-4.4673 6.9646l9.3444 6.3724 3.5036-6.0155 10.8989 5.2989 3.6923-7.7627z"/><path d="m44.1317 33.8223 8.7959 5.9984 2.8396-5.9702-9.0807-4.415z"/><path d="m26.6475 22.3062-17.1475-14.1812-3.7454 4.7505 15.3054 15.8606c1.8868-1.8127 3.7667-3.968 5.5875-6.4299z"/><path d="m40.7969 6.3101-2.8867-.8145c-1.0128 3.5906-3.3734 8.7643-6.6154 13.9038l-13.494-11.1445-1.9102 2.3135 13.7404 11.348c-4.3166 6.2356-9.8475 12.0216-15.7521 14.3716-1.6424.6537-6.5984 1.3172-8.8789 1.5786v3.0187c1.1743-.1288 7.6226-.8683 9.9883-1.8101 2.6066-1.0374 5.1041-2.635 7.4553-4.5858l13.5271 21.7576 2.5469-1.584-13.8057-22.2057c8.2506-7.9466 14.3127-19.8637 16.085-26.1472z"/></svg>

<?xml version="1.0" encoding="utf-8"?>
<!-- Generator: Adobe Illustrator 17.1.0, SVG Export Plug-In . SVG Version: 6.00 Build 0)  -->
<svg version="1.2" baseProfile="tiny" xmlns="http://www.w3.org/2000/svg" xmlns:xlink="http://www.w3.org/1999/xlink" x="0px"
	 y="0px" width="64px" height="64px" viewBox="0 0 64 64" xml:space="preserve">
<g id="Box">
	<rect fill="none" width="64" height="64"/>
</g>
<g id="Icon">
	<g>
		<circle cx="11" cy="29" r="5"/>
		<path d="M27.5029,32.7793l10.5939,17.0408l11.3712-9.6954L31.6448,27.9702C30.3546,29.6345,28.9752,31.2561,27.5029,32.7793z"/>
		<path d="M16.8107,40.6765l7.3325,17.9412l8.1837-4.064L21.8633,37.7227C20.1822,38.9367,18.4922,39.9158,16.8107,40.6765z"/>
		<path d="M37.4329,19.243c-1.2988,2.2867-2.7921,4.6509-4.4673,6.9646l9.3444,6.3724l3.5036-6.0155l10.8989,5.2989l3.6923-7.7627
			L37.4329,19.243z"/>
		<polygon points="44.1317,33.8223 52.9276,39.8207 55.7672,33.8505 46.6865,29.4355 		"/>
		<path d="M26.6475,22.3062L9.5,8.125l-3.7454,4.7505L21.06,28.7361C22.9468,26.9234,24.8267,24.7681,26.6475,22.3062z"/>
		<path d="M40.7969,6.3101l-2.8867-0.8145c-1.0128,3.5906-3.3734,8.7643-6.6154,13.9038L17.8008,8.2549l-1.9102,2.3135
			L29.631,21.9164c-4.3166,6.2356-9.8475,12.0216-15.7521,14.3716C12.2365,36.9417,7.2805,37.6052,5,37.8666v3.0187
			c1.1743-0.1288,7.6226-0.8683,9.9883-1.8101c2.6066-1.0374,5.1041-2.635,7.4553-4.5858l13.5271,21.7576l2.5469-1.584
			L24.7119,32.4573C32.9625,24.5107,39.0246,12.5936,40.7969,6.3101z"/>
	</g>
</g>
</svg>
